X: 118
T:Hungarian Waltz. JaW.118
M:3/8
L:1/8
Q:1/4=30
S:James Winder Ms, Lancashire, 1835-41
R:Waltz
O:England
A:Wyresdale,Lancashire
H:1/8
Z:vmp.Chris Partington, Aug 2004
K:G
G|(gf)G|(ed)G|(cA)G|(ed)G|\
(gf)G|(ed)G|(dc)A|G2:|!
|:B|(cB)G|(ed)G|(cB)G|(ed)G|\
(gf)G|(ed)G|(dc)A|G2:|!
|:d|dba|gBd|cAf|gbd|\
dba|gBd|c(Af)|g2:|!
|:B|cAf|gbB|cAf|g2d|\
dba|gBd|cAf|g2:|]
